scalable/categories/applications-utilities-symbolic.svg

<svg version="1.1" viewBox="0 0 16 16" xmlns="http://www.w3.org/2000/svg" xmlns:osb="http://www.openswatchbook.org/uri/2009/osb">
 <g fill="#808080">
  <path d="m3.9922 0c-0.0502 0-0.0957 0.015-0.14453 0.0195 0.21491-3e-3 0.35727-0.0162 0.64648-0.0195zm0.51367 0c1.2582 0.0145 1.6789-0.0306 2.4316 0.38477 0.37637 0.20766 0.67323 0.55938 0.83789 0.99804 0.16471 0.43867 0.22461 0.95958 0.22461 1.6172v1h3v-0.24609c0-1.108 0.446-1.7539 1-1.7539s1 0.64592 1 1.7539v0.24609c1.108 0 2-1.392 2-2.5s-0.892-1.5-2-1.5z"/>
  <path d="m4.4941 0c-1.2582 0.0145-1.6789-0.0306-2.4316 0.38477-0.37637 0.20766-0.67323 0.55938-0.83789 0.99804-0.16467 0.43867-0.22461 0.95958-0.22461 1.6172v10c0 0.65761 0.0599 1.1786 0.22461 1.6172 0.16468 0.43861 0.46153 0.78852 0.83789 0.99609 0.75272 0.41513 0.67354 0.37165 1.9316 0.38672h2e-3 0.50391 0.50391 2e-3c1.2581-0.0151 1.1789 0.0284 1.9316-0.38672 0.37636-0.20757 0.67321-0.55748 0.83789-0.99609 0.16451-0.43861 0.22451-0.95958 0.22451-1.6172v-10c0-0.65761-0.0599-1.1785-0.22461-1.6172-0.16466-0.43866-0.46152-0.79038-0.83789-0.99804-0.75275-0.41537-1.1734-0.37027-2.4316-0.38477h-4e-3 -2e-3 -2e-3zm6e-3 1c1.2585 0.0147 1.5891 0.0598 1.9551 0.26172 0.18341 0.10119 0.28716 0.21275 0.38476 0.47266 0.09728 0.25987 0.16002 0.67323 0.16002 1.2656v10c0 0.59239-0.0628 1.0058-0.16016 1.2656-0.0975 0.25982-0.20134 0.3715-0.38476 0.47266-0.36598 0.20182-0.19645 0.24652-1.4551 0.26172h-6e-3 -0.494-0.49414-0.0059c-1.2586-0.0152-1.0891-0.0599-1.455-0.26172-0.18342-0.10116-0.28722-0.21285-0.38476-0.47266-0.09738-0.25982-0.16016-0.67323-0.16016-1.2656v-10c0-0.59239 0.0626-1.0058 0.16016-1.2656 0.0976-0.25991 0.20135-0.37147 0.38476-0.47266 0.36596-0.20192 0.69655-0.24702 1.9551-0.26172zm0 1a1.5 1.5 0 0 0-1.5 1.5 1.5 1.5 0 0 0 1.5 1.5 1.5 1.5 0 0 0 1.5-1.5 1.5 1.5 0 0 0-1.5-1.5zm0 1a0.5 0.5 0 0 1 0.5 0.5 0.5 0.5 0 0 1-0.5 0.5 0.5 0.5 0 0 1-0.5-0.5 0.5 0.5 0 0 1 0.5-0.5z" color="#000000" color-rendering="auto" dominant-baseline="auto" image-rendering="auto" shape-rendering="auto" solid-color="#000000" style="font-feature-settings:normal;font-variant-alternates:normal;font-variant-caps:normal;font-variant-ligatures:normal;font-variant-numeric:normal;font-variant-position:normal;isolation:auto;mix-blend-mode:normal;shape-padding:0;text-decoration-color:#000000;text-decoration-line:none;text-decoration-style:solid;text-indent:0;text-orientation:mixed;text-transform:none;white-space:normal"/>
  <path d="m8 5v4c1 0.5 3.1054 2.3506 6 3-0.91305-3.4912-3.5-5.5-6-7zm2.5 3c0.27614 0 0.69653 0.47678 0.875 0.6875 1.2552 2.2413-0.5513 0.53677-1.375-0.1875 0-0.27614 0.22386-0.5 0.5-0.5z"/>
 </g>
</svg>

<?xml version="1.0" encoding="UTF-8" standalone="no"?>
<svg
   xmlns:osb="http://www.openswatchbook.org/uri/2009/osb"
   xmlns:dc="http://purl.org/dc/elements/1.1/"
   xmlns:cc="http://creativecommons.org/ns#"
   xmlns:rdf="http://www.w3.org/1999/02/22-rdf-syntax-ns#"
   xmlns:svg="http://www.w3.org/2000/svg"
   xmlns="http://www.w3.org/2000/svg"
   xmlns:sodipodi="http://sodipodi.sourceforge.net/DTD/sodipodi-0.dtd"
   xmlns:inkscape="http://www.inkscape.org/namespaces/inkscape"
   height="16"
   id="svg7384"
   version="1.1"
   width="16"
   sodipodi:docname="applications-utilities-symbolic.svg"
   inkscape:version="0.92.4 (5da689c313, 2019-01-14)">
  <sodipodi:namedview
     pagecolor="#ffffff"
     bordercolor="#666666"
     borderopacity="1"
     objecttolerance="10"
     gridtolerance="10"
     guidetolerance="10"
     inkscape:pageopacity="0"
     inkscape:pageshadow="2"
     inkscape:window-width="1296"
     inkscape:window-height="704"
     id="namedview8927"
     showgrid="false"
     inkscape:zoom="14.75"
     inkscape:cx="-4.4067797"
     inkscape:cy="8"
     inkscape:window-x="70"
     inkscape:window-y="27"
     inkscape:window-maximized="1"
     inkscape:current-layer="svg7384" />
  <metadata
     id="metadata20854">
    <rdf:RDF>
      <cc:Work
         rdf:about="">
        <dc:title></dc:title>
        <dc:format>image/svg+xml</dc:format>
        <dc:type
           rdf:resource="http://purl.org/dc/dcmitype/StillImage" />
      </cc:Work>
    </rdf:RDF>
  </metadata>
  <defs
     id="defs7386">
    <linearGradient
       id="linearGradient5606"
       osb:paint="solid">
      <stop
         id="stop5608"
         offset="0"
         style="stop-color:#000000;stop-opacity:1;" />
    </linearGradient>
    <linearGradient
       id="linearGradient4526"
       osb:paint="solid">
      <stop
         id="stop4528"
         offset="0"
         style="stop-color:#ffffff;stop-opacity:1;" />
    </linearGradient>
    <linearGradient
       id="linearGradient3600-4"
       osb:paint="gradient">
      <stop
         id="stop3602-7"
         offset="0"
         style="stop-color:#f4f4f4;stop-opacity:1" />
      <stop
         id="stop3604-6"
         offset="1"
         style="stop-color:#dbdbdb;stop-opacity:1" />
    </linearGradient>
  </defs>
  <g
     id="layer9"
     label="status"
     style="display:inline"
     transform="translate(-773.00024,-92.999939)" />
  <g
     id="layer2"
     style="display:inline"
     transform="translate(-532.00004,-459.99994)" />
  <g
     id="layer4"
     style="display:inline"
     transform="translate(-532.00004,-459.99994)" />
  <g
     id="g1812"
     style="display:inline"
     transform="translate(-532.00004,-459.99994)" />
  <g
     id="g6217"
     style="display:inline"
     transform="translate(-532.00004,-459.99994)" />
  <g
     id="g1833"
     style="display:inline"
     transform="translate(-532.00004,-459.99994)" />
  <g
     id="layer1"
     style="display:inline"
     transform="translate(-532.00004,-459.99994)" />
  <path
     style="opacity:1;vector-effect:none;fill:#808080;fill-opacity:1;stroke:none;stroke-width:0.99999994;stroke-linecap:round;stroke-linejoin:round;stroke-miterlimit:4;stroke-dasharray:none;stroke-dashoffset:0;stroke-opacity:1"
     d="M 3.99215,0 C 3.94195,0 3.89645,0.015 3.84762,0.0195 4.06253,0.0165 4.20489,0.0033 4.4941,0 Z M 4.50582,0 C 5.76402,0.0145 6.18471,-0.0306 6.93746,0.38477 7.31383,0.59243 7.61069,0.94415 7.77535,1.38281 7.94006,1.82148 7.99996,2.34239 7.99996,3 v 1 h 3 V 3.75391 c 0,-1.10799 0.446,-1.75391 1,-1.75391 0.554,0 1,0.64592 1,1.75391 V 4 c 1.108,0 2,-1.392 2,-2.5 0,-1.108 -0.892,-1.5 -2,-1.5 z"
     id="rect6717"
     inkscape:connector-curvature="0" />
  <path
     id="path1817-9-6-6"
     d="M 4.4941,0 C 3.2359,0.0145 2.81521,-0.0306 2.06246,0.38477 1.68609,0.59243 1.38923,0.94415 1.22457,1.38281 1.0599,1.82148 0.99996,2.34239 0.99996,3 v 10 c 0,0.65761 0.0599,1.17858 0.22461,1.61719 0.16468,0.43861 0.46153,0.78852 0.83789,0.99609 C 2.81518,16.02841 2.736,15.98493 3.9941,16 h 0.002 0.50391 0.50391 0.002 C 6.26402,15.9849 6.18484,16.0284 6.93756,15.61328 7.31392,15.40571 7.61077,15.0558 7.77545,14.61719 7.93996,14.17858 7.99996,13.65761 7.99996,13 V 3 C 7.99996,2.34239 7.94006,1.82148 7.77535,1.38281 7.61069,0.94415 7.31383,0.59243 6.93746,0.38477 6.18471,-0.0306 5.76402,0.0145 4.50582,0 h -0.004 -0.002 -0.002 z m 0.006,1 C 5.75863,1.0147 6.08922,1.0598 6.45518,1.26172 6.63859,1.36291 6.74234,1.47447 6.83994,1.73438 6.93722,1.99425 6.99996,2.40761 6.99996,3 v 10 c 0,0.59239 -0.0628,1.0058 -0.16016,1.26562 -0.0975,0.25982 -0.20134,0.3715 -0.38476,0.47266 C 6.08906,14.9401 6.25859,14.9848 4.99996,15 h -0.006 -0.494 -0.49414 -0.0059 C 2.74133,14.9848 2.91086,14.9401 2.54488,14.73828 2.36146,14.63712 2.25766,14.52543 2.16012,14.26562 2.06274,14.0058 1.99996,13.59239 1.99996,13 V 3 c 0,-0.59239 0.0626,-1.00576 0.16016,-1.26562 C 2.25772,1.47447 2.36147,1.36291 2.54488,1.26172 2.91084,1.0598 3.24143,1.0147 4.49996,1 Z m 0,1 a 1.5,1.5 0 0 0 -1.5,1.5 1.5,1.5 0 0 0 1.5,1.5 1.5,1.5 0 0 0 1.5,-1.5 1.5,1.5 0 0 0 -1.5,-1.5 z m 0,1 a 0.5,0.5 0 0 1 0.5,0.5 0.5,0.5 0 0 1 -0.5,0.5 0.5,0.5 0 0 1 -0.5,-0.5 0.5,0.5 0 0 1 0.5,-0.5 z"
     style="color:#000000;font-style:normal;font-variant:normal;font-weight:normal;font-stretch:normal;font-size:medium;line-height:normal;font-family:sans-serif;font-variant-ligatures:normal;font-variant-position:normal;font-variant-caps:normal;font-variant-numeric:normal;font-variant-alternates:normal;font-feature-settings:normal;text-indent:0;text-align:start;text-decoration:none;text-decoration-line:none;text-decoration-style:solid;text-decoration-color:#000000;letter-spacing:normal;word-spacing:normal;text-transform:none;writing-mode:lr-tb;direction:ltr;text-orientation:mixed;dominant-baseline:auto;baseline-shift:baseline;text-anchor:start;white-space:normal;shape-padding:0;clip-rule:nonzero;display:inline;overflow:visible;visibility:visible;opacity:1;isolation:auto;mix-blend-mode:normal;color-interpolation:sRGB;color-interpolation-filters:linearRGB;solid-color:#000000;solid-opacity:1;vector-effect:none;fill:#808080;fill-opacity:1;fill-rule:nonzero;stroke:none;stroke-width:1.00000012;stroke-linecap:butt;stroke-linejoin:miter;stroke-miterlimit:4;stroke-dasharray:none;stroke-dashoffset:0;stroke-opacity:1;marker:none;color-rendering:auto;image-rendering:auto;shape-rendering:auto;text-rendering:auto;enable-background:accumulate"
     inkscape:connector-curvature="0" />
  <path
     style="opacity:1;vector-effect:none;fill:#808080;fill-opacity:1;stroke:none;stroke-width:1;stroke-linecap:round;stroke-linejoin:round;stroke-miterlimit:4;stroke-dasharray:none;stroke-dashoffset:0;stroke-opacity:1"
     d="M 8 5 L 8 9 C 9 9.5 11.10545 11.35059 14 12 C 13.08695 8.50878 10.5 6.5 8 5 z M 10.5 8 C 10.77614 8 11.19653 8.47678 11.375 8.6875 C 12.63024 10.92878 10.8237 9.22427 10 8.5 C 10 8.22386 10.22386 8 10.5 8 z "
     id="rect6767" />
</svg>
